X:20
T:Connaughtman's Rambles
M:6/8
R:jig
C:Traditional
K:D
FA/A/A dAA | BAB dBA | FA/A/A dfe | dBA B2A |
FA/A/A dAA | BAB def | gfe dfe |[1 dBA B2A :|[2 dBA B2e |
|: fb/b/b fa/a/a | fed deg | fb/b/b fa/a/a | fed e3 |
fb/b/b fa/a/a | fed def | gfe dfe |[1 dBA B2e :|[2 dBA B2A |]

%%newpage
%%scale .75
%%staffsep 35

